build/assets/images/svg/icons/delivery/box.svg

<svg width="52" height="52" viewBox="0 0 52 52" fill="none" xmlns="http://www.w3.org/2000/svg">
<rect width="52" height="52" rx="26" fill="#F4F7FB"/>
<path fill-rule="evenodd" clip-rule="evenodd" d="M11.1847 19.2052C11.2155 18.9583 11.264 18.6283 11.3676 18.3251C11.4311 18.0167 11.571 17.7702 11.694 17.5989C11.863 17.3635 12.07 17.1713 12.2598 17.0192C12.6399 16.7145 13.1295 16.4308 13.6425 16.1715C14.682 15.6461 16.0588 15.1022 17.4751 14.5959C20.3214 13.5783 23.5073 12.6493 24.9072 12.2524C25.6362 12.0457 26.3938 12.0555 27.1159 12.2781C28.5106 12.708 31.69 13.7081 34.5289 14.7484C35.9425 15.2665 37.3077 15.8074 38.3332 16.3027C38.8391 16.547 39.3143 16.8047 39.6812 17.0673C39.8619 17.1967 40.0669 17.3627 40.2396 17.5668C40.3545 17.7025 40.5398 17.9538 40.6231 18.3009C40.7326 18.6107 40.7829 18.9517 40.8144 19.2051C40.8621 19.5879 40.8947 20.0502 40.9172 20.5559C40.9623 21.571 40.9699 22.8455 40.9567 24.1819C40.9303 26.8594 40.8193 29.8577 40.7422 31.6821C40.6758 33.2534 39.6896 34.6248 38.2405 35.2044L27.4851 39.5066C26.5315 39.888 25.4676 39.888 24.514 39.5066L13.7586 35.2044C12.3095 34.6248 11.3233 33.2534 11.2569 31.682C11.1799 29.8576 11.0689 26.8594 11.0425 24.1819C11.0292 22.8454 11.0369 21.571 11.082 20.5559C11.1045 20.0502 11.1371 19.5879 11.1847 19.2052ZM24.6661 36.6953V24.8974C24.6162 24.8796 24.5664 24.8609 24.517 24.8411L13.7525 20.5353L13.746 20.6743C13.7041 21.6178 13.696 22.8363 13.709 24.1555C13.735 26.7894 13.8445 29.7535 13.9212 31.5695C13.9428 32.0803 14.2631 32.5341 14.749 32.7285L24.6661 36.6953ZM27.3328 36.6954V24.8974C27.3828 24.8797 27.4326 24.8609 27.4821 24.8411L38.2466 20.5353L38.2532 20.6744C38.2951 21.6178 38.3032 22.8363 38.2902 24.1555C38.2641 26.7894 38.1546 29.7536 38.0779 31.5695C38.0563 32.0803 37.736 32.5341 37.2501 32.7285L27.3328 36.6954ZM33.6113 17.2523C34.6678 17.6394 35.6521 18.0237 36.4607 18.3776L32.6881 19.8866L22.8956 15.6243C24.0329 15.2773 25.0097 14.9951 25.6346 14.818C25.8662 14.7523 26.0983 14.7549 26.3304 14.8264C27.7144 15.253 30.8399 16.2367 33.6113 17.2523ZM19.0627 16.8643L29.2062 21.2794L26.4917 22.3652C26.1738 22.4923 25.8253 22.4923 25.5074 22.3652L15.3574 18.3052C16.1876 17.9231 17.2349 17.5137 18.3728 17.1069C18.6007 17.0254 18.8311 16.9444 19.0627 16.8643Z" fill="#203686"/>
</svg>

<svg width="52" height="52" fill="none" xmlns="http://www.w3.org/2000/svg"><rect width="52" height="52" rx="26" fill="#F4F7FB"/><path fill-rule="evenodd" clip-rule="evenodd" d="M11.185 19.205c.03-.247.079-.577.183-.88.063-.308.203-.555.326-.726a2.98 2.98 0 01.566-.58c.38-.304.87-.588 1.383-.847 1.039-.526 2.416-1.07 3.832-1.576 2.846-1.018 6.032-1.947 7.432-2.344a3.868 3.868 0 012.209.026c1.395.43 4.574 1.43 7.413 2.47 1.413.519 2.779 1.06 3.804 1.555.506.244.981.502 1.348.764.18.13.386.296.559.5.114.136.3.387.383.734.11.31.16.65.191.904.048.383.08.845.103 1.35.045 1.016.053 2.29.04 3.627a248.198 248.198 0 01-.215 7.5 3.976 3.976 0 01-2.502 3.522l-10.755 4.303a4 4 0 01-2.971 0l-10.755-4.303a3.976 3.976 0 01-2.502-3.522 248.558 248.558 0 01-.214-7.5 70.513 70.513 0 01.039-3.626c.022-.506.055-.968.103-1.35zm13.481 17.49V24.897c-.05-.017-.1-.036-.149-.056l-10.764-4.306-.007.14c-.042.943-.05 2.161-.037 3.48.026 2.634.136 5.598.212 7.415.022.51.342.964.828 1.158l9.917 3.967zm2.667 0V24.897c.05-.017.1-.036.15-.056l10.764-4.306.006.14c.042.943.05 2.161.037 3.48a246.153 246.153 0 01-.212 7.415c-.022.51-.342.964-.828 1.158l-9.917 3.967zm6.278-19.443c1.057.387 2.041.772 2.85 1.126l-3.773 1.509-9.792-4.263a143.56 143.56 0 012.739-.806c.231-.066.463-.063.695.008 1.384.427 4.51 1.41 7.281 2.426zm-14.548-.388l10.143 4.415-2.714 1.086a1.318 1.318 0 01-.985 0l-10.15-4.06c.83-.382 1.878-.791 3.016-1.198.228-.082.458-.163.69-.243z" fill="#203686"/></svg>
